Sources/FrostedUI/Resources/Icons.xcassets/cursor20.imageset/cursor-20.svg

<svg width="20" height="20" viewBox="0 0 20 20" fill="none" xmlns="http://www.w3.org/2000/svg" data-fui-icon="true">
  <path
    d="M1.58069 4.40007C0.959548 2.64829 2.64825 0.959594 4.40002 1.58073L17.5895 6.25749C19.4934 6.93293 19.5659 9.59856 17.7018 10.3766L14.736 11.613L17.2906 14.1676C18.1528 15.0301 18.153 16.4284 17.2906 17.2907C16.4283 18.153 15.03 18.1528 14.1676 17.2907L11.6129 14.736L10.3766 17.7018C9.59852 19.5659 6.93289 19.4934 6.25745 17.5895L1.58069 4.40007ZM3.89905 2.9948C3.33715 2.79555 2.7955 3.33719 2.99475 3.89909L7.67151 17.0885C7.8884 17.6984 8.74304 17.7221 8.9928 17.1247L10.6608 13.1266C10.7571 12.8958 10.9622 12.7279 11.2076 12.6794C11.4529 12.6311 11.7067 12.7077 11.8834 12.8844L15.2281 16.2301C15.5048 16.5065 15.9536 16.5067 16.2301 16.2301C16.5066 15.9536 16.5064 15.5048 16.2301 15.2282L12.8844 11.8835L12.8229 11.8132C12.6905 11.643 12.6371 11.4221 12.6793 11.2077C12.7278 10.9623 12.8957 10.7571 13.1266 10.6608L17.1246 8.99284C17.722 8.74311 17.6984 7.88846 17.0885 7.67155L3.89905 2.9948Z"
    fill="currentColor"
  />
</svg>

<svg xmlns="http://www.w3.org/2000/svg" width="20" height="20" fill="none" data-fui-icon="true" viewBox="0 0 20 20"><path fill="currentColor" d="M1.58 4.4C.96 2.648 2.649.96 4.4 1.58l13.19 4.677c1.903.676 1.976 3.342.112 4.12l-2.966 1.236 2.555 2.555a2.209 2.209 0 0 1-3.123 3.123l-2.555-2.555-1.236 2.966c-.778 1.864-3.444 1.791-4.12-.113zM3.9 2.995a.708.708 0 0 0-.904.904l4.677 13.19a.709.709 0 0 0 1.32.036l1.669-3.998a.75.75 0 0 1 1.222-.243l3.345 3.346a.709.709 0 0 0 1.002-1.002l-3.346-3.344-.061-.07a.75.75 0 0 1 .304-1.153l3.998-1.668a.709.709 0 0 0-.037-1.321z"/></svg>
